X: 131
T: Old Noll's Jig
M:6/8
L:1/8
Q:160
S:Playford
O:Manuscript
A:English
K:F
E|FED D2 G|FED D2d|^c2 d A2 d|^cc2 d A2 E|FED D2 G|FED D2 e|fed c>=bA|A3 A2:|
|: c|ABc F2 c|ABc F2 f|def B2 d|Bcd G2 g|efg c2 e|fga B2 a|bag g3|f3 f3:|
|: a|fga def|efg ^cde|def efd| ^c3 A2 a|bag aCa|bag aAa|bag f>ed |d3 d2:|

